svgs/sharp-light/circle-microphone.svg

<svg xmlns="http://www.w3.org/2000/svg" viewBox="0 0 512 512"><!--! Font Awesome Pro 6.4.0 by @fontawesome - https://fontawesome.com License - https://fontawesome.com/license (Commercial License) Copyright 2023 Fonticons, Inc. --><path d="M480 256A224 224 0 1 0 32 256a224 224 0 1 0 448 0zM0 256a256 256 0 1 1 512 0A256 256 0 1 1 0 256zM192 96h16 96 16v16V256c0 35.3-28.7 64-64 64s-64-28.7-64-64V112 96zm32 32V256c0 17.7 14.3 32 32 32s32-14.3 32-32V128H224zm-64 96v16 16c0 53 43 96 96 96s96-43 96-96V240 224h32v16 16c0 65.3-48.9 119.1-112 127v17 16H240V400 383c-63.1-7.9-112-61.7-112-127V240 224h32z"/></svg>

<svg xmlns="http://www.w3.org/2000/svg" viewBox="0 0 512 512"><!--! Font Awesome Pro 6.6.0 by @fontawesome - https://fontawesome.com License - https://fontawesome.com/license (Commercial License) Copyright 2024 Fonticons, Inc. --><path d="M480 256A224 224 0 1 0 32 256a224 224 0 1 0 448 0zM0 256a256 256 0 1 1 512 0A256 256 0 1 1 0 256zM192 96l16 0 96 0 16 0 0 16 0 144c0 35.3-28.7 64-64 64s-64-28.7-64-64l0-144 0-16zm32 32l0 128c0 17.7 14.3 32 32 32s32-14.3 32-32l0-128-64 0zm-64 96l0 16 0 16c0 53 43 96 96 96s96-43 96-96l0-16 0-16 32 0 0 16 0 16c0 65.3-48.9 119.1-112 127l0 17 0 16-32 0 0-16 0-17c-63.1-7.9-112-61.7-112-127l0-16 0-16 32 0z"/></svg>
